blockchains/ethereum/assets/0xfeF4185594457050cC9c23980d301908FE057Bb1/logo.svg

<svg fill="none" height="250" viewBox="0 0 250 250" width="250" xmlns="http://www.w3.org/2000/svg"><path d="m124.75 248.197c68.18 0 123.45-55.271 123.45-123.45 0-68.1797-55.27-123.45012-123.45-123.45012-68.1795 0-123.44995 55.27042-123.44995 123.45012 0 68.179 55.27045 123.45 123.44995 123.45z" fill="#3ec0ce"/><path d="m77.3 210.799c-3 0-6-1.1-8.35-3.3-2.55-2.35-3.9-5.75-3.9-9.25v-149.3003c0-6.65 5.2-12.35 11.85-12.55 6.95-.25 12.65 5.35 12.65 12.25v126.8003c0 .85.95 1.4 1.7.95l24.75-14.3c.35-.2.55-.55.55-.95v-84.1503c0-3.4 1.25-6.7 3.7-9.05 4.1-3.95 10.1-4.55 14.75-1.8l78.95 46.3503c2.9 1.7 5.1 4.4 5.9 7.65 1.35 5.45-1.1 10.95-5.75 13.65l-130.65 75.35c-1.9 1.1-4 1.65-6.15 1.65zm63.8-110.75v45.65c0 .85.95 1.4 1.7.95l39.2-22.6c.75-.45.75-1.5 0-1.95l-39.2-23.0003c-.75-.45-1.7.1-1.7.9503z" fill="#fff"/></svg>

<svg width="250" height="250" viewBox="0 0 250 250" fill="none" xmlns="http://www.w3.org/2000/svg">
<path d="M124.75 248.197C192.93 248.197 248.2 192.926 248.2 124.747C248.2 56.5673 192.93 1.29688 124.75 1.29688C56.5705 1.29688 1.30005 56.5673 1.30005 124.747C1.30005 192.926 56.5705 248.197 124.75 248.197Z" fill="#3EC0CE"/>
<path d="M77.3 210.799C74.3 210.799 71.3 209.699 68.95 207.499C66.4 205.149 65.05 201.749 65.05 198.249V48.9487C65.05 42.2987 70.25 36.5987 76.9 36.3987C83.85 36.1487 89.55 41.7487 89.55 48.6487V175.449C89.55 176.299 90.5 176.849 91.25 176.399L116 162.099C116.35 161.899 116.55 161.549 116.55 161.149V76.9987C116.55 73.5987 117.8 70.2987 120.25 67.9487C124.35 63.9987 130.35 63.3987 135 66.1487L213.95 112.499C216.85 114.199 219.05 116.899 219.85 120.149C221.2 125.599 218.75 131.099 214.1 133.799L83.45 209.149C81.55 210.249 79.45 210.799 77.3 210.799ZM141.1 100.049V145.699C141.1 146.549 142.05 147.099 142.8 146.649L182 124.049C182.75 123.599 182.75 122.549 182 122.099L142.8 99.0987C142.05 98.6487 141.1 99.1987 141.1 100.049Z" fill="white"/>
</svg>
